X:22
T:J. L. Blatchley Banter
B:American Veteran Fifer, #22
M:2/4
L:1/16
Q:1/8=180
K:D t=8
|:AG | EA2B A2cd | ee2c d2cd | ea2a g2ag | da2a g2ag |
edB(B A2)cd | ee2c d2cd | ea2b gedB | A6 :|
|:cd | ea2b a2ga | ba2b a2ef | gafd ea2a | gafd ecBA |
Aeab a2ga | ba2b a2ef | gafd efdB | A6 :|
